file-eye-outline.svg

<svg fill="currentColor" viewBox="0 0 24 24"><path d="M17 18c.56 0 1 .44 1 1s-.44 1-1 1-1-.44-1-1 .44-1 1-1m0-3c-2.73 0-5.06 1.66-6 4 .94 2.34 3.27 4 6 4s5.06-1.66 6-4c-.94-2.34-3.27-4-6-4m0 6.5a2.5 2.5 0 0 1-2.5-2.5 2.5 2.5 0 0 1 2.5-2.5 2.5 2.5 0 0 1 2.5 2.5 2.5 2.5 0 0 1-2.5 2.5M9.27 20H6V4h7v5h5v4.07c.7.08 1.36.25 2 .49V8l-6-6H6a2 2 0 0 0-2 2v16a2 2 0 0 0 2 2h4.5a8.2 8.2 0 0 1-1.23-2"/></svg>

<svg  viewBox="0 0 24 24" fill="currentColor"><path  d="M17,18C17.56,18 18,18.44 18,19C18,19.56 17.56,20 17,20C16.44,20 16,19.56 16,19C16,18.44 16.44,18 17,18M17,15C14.27,15 11.94,16.66 11,19C11.94,21.34 14.27,23 17,23C19.73,23 22.06,21.34 23,19C22.06,16.66 19.73,15 17,15M17,21.5A2.5,2.5 0 0,1 14.5,19A2.5,2.5 0 0,1 17,16.5A2.5,2.5 0 0,1 19.5,19A2.5,2.5 0 0,1 17,21.5M9.27,20H6V4H13V9H18V13.07C18.7,13.15 19.36,13.32 20,13.56V8L14,2H6A2,2 0 0,0 4,4V20A2,2 0 0,0 6,22H10.5C10,21.41 9.59,20.73 9.27,20Z"/></svg>
